Catalina-light/actions/16/view-time-schedule-baselined-add.svg

<svg width="16" height="16" viewBox="0 0 16 16" xmlns="http://www.w3.org/2000/svg">
<defs>
<style id="current-color-scheme" type="text/css">.ColorScheme-Text { color:#5c616c; } .ColorScheme-Highlight { color:#5294e2; }</style>
</defs>
<path class="ColorScheme-Text" d="m3 1c-2.25 0-2 2-2 2v12h8v-2h-6v-7h4v-2h-4v-1h10v4h-6v2h8v-6c0-2-2-2-2-2h-10zm2 9v2h4v-2h-4zm7 0v2h-2v2h2v2h2v-2h2v-2h-2v-2h-2z" fill="currentColor"/>
</svg>

<svg xmlns="http://www.w3.org/2000/svg" width="16" height="16" viewBox="0 0 16 16">
 <defs>
  <style id="current-color-scheme" type="text/css">
   .ColorScheme-Text { color:#5c616c; } .ColorScheme-Highlight { color:#5294e2; }
  </style>
 </defs>
 <path style="fill:currentColor" class="ColorScheme-Text" d="M 3 1 C 0.75 1 1 3 1 3 L 1 15 L 9 15 L 9 13 L 3 13 L 3 6 L 7 6 L 7 4 L 3 4 L 3 3 L 13 3 L 13 7 L 7 7 L 7 9 L 15 9 L 15 3 C 15 1 13 1 13 1 L 3 1 z M 5 10 L 5 12 L 9 12 L 9 10 L 5 10 z M 12 10 L 12 12 L 10 12 L 10 14 L 12 14 L 12 16 L 14 16 L 14 14 L 16 14 L 16 12 L 14 12 L 14 10 L 12 10 z"/>
</svg>
